X:1
T:Title
%%score ( 1 2 ) { ( 3 5 ) | 4 }
L:1/8
Q:1/4=95
M:3/4
K:G
V:1 treble nm="Grand Piano, Soprano"
V:2 treble 
V:3 bass nm="Choir Pad, Grand Canyon, 87.87.77.77"
V:5 bass 
V:4 bass 
V:1
 [DG]>[DA] [DF]3 [DF] | [FA]>[GB] [DA]2 [DG]2 | [DG][DF] [CE][EG] D2 | [DG]2 [FA]4 | %4
w: By~William~Batchelder~Bradbury~(1816\-1868) * * *||||
 [DG]>[DA] [DF]3 [DF] | [FA]>[GB] [DA]2 [DG]2 | [DG][DF] [CE][EG] D2 | [DA]2 [DG]4 | %8
w: ||||
 [GB]>[Ac] [Bd]3 [Gd] | [Gc][GB] [FA]4 | [GB][Fc] [Gd]G G2 | G2 [FA]4 | [FB][FA] GE z G | %13
w: |||||
 GG A2 d2 | [Fd][Fd] [Gd][Ge] dB | [FA]2 G4- | G4 z2 |] %17
w: ||||
V:2
 x6 | x6 | x6 | x6 | x6 | x6 | x6 | x6 | x6 | x6 | x6 | x6 | z2 z2 E2 | E2 F4 | z2 z2 G2 | x6 | %16
 x6 |] %17
V:3
 B,>C A,3 A, | C>D C2 B,2 | G,G, G,G, G,2 | B,2 D4 | B,>C A,3 A, | C>D C2 B,2 | %6
 G,[K:bass]G, G,G, F,A, | C2 B,4 | z2 G,>G, G,[K:treble]D | ED D4 | DD DD E2 | DB, D4 | %12
 ^DD EC z[K:bass] C, | B,2 D2 A,2 | C[K:treble]C B,C B,D | C2 B,4- | B,4 z2 |] %17
V:4
 G,>G, D,3 D, | D,>D, G,2 G,,2 | B,,B,, C,C, C,2 | G,,2 D,4 | G,>G, D,3 D, | D,>D, G,2 G,,2 | %6
 B,,B,, C,C, D,2 | D,2 G,,4 | z2 z2 z B,, | C,G,, D,4 | G,A, B,B, C2 | B,G, D,4 | B,,B,, .C,4 | %13
 E,E, D,4 | D,D, G,C, D,2 | D,2 G,4- | G,4 z2 |] %17
V:5
 x6 | x6 | x6 | x6 | x6 | x6 | x[K:bass] x5 | x6 | x5[K:treble] x | x6 | x6 | x6 | %12
 z2 z2 C2[K:bass] | x6 | x[K:treble] x5 | x6 | x6 |] %17

